material-icons/material-design-light/scalable/applications/calibre-gui.svg

﻿<?xml version="1.0" encoding="utf-8"?>
<!DOCTYPE svg PUBLIC "-//W3C//DTD SVG 1.1//EN" "http://www.w3.org/Graphics/SVG/1.1/DTD/svg11.dtd">
<svg xmlns="http://www.w3.org/2000/svg" xmlns:xlink="http://www.w3.org/1999/xlink" version="1.1" baseProfile="full" width="24" height="24" viewBox="0 0 24.00 24.00" enable-background="new 0 0 24.00 24.00" xml:space="preserve">
	<path fill="#000000" fill-opacity="1" stroke-width="0.2" stroke-linejoin="round" d="M 11.9994,7.99807C 13.6564,7.99807 14.9994,6.65507 14.9994,4.99807C 14.9994,3.34107 13.6564,1.99807 11.9994,1.99807C 10.3424,1.99807 8.99939,3.34107 8.99939,4.99807C 8.99939,6.65507 10.3424,7.99807 11.9994,7.99807 Z M 11.9994,11.5431C 9.63538,9.35007 6.47839,7.99807 2.99939,7.99807L 2.99939,18.9981C 6.47839,18.9981 9.63538,20.3501 11.9994,22.5431C 14.3634,20.3501 17.5204,18.9981 20.9994,18.9981L 20.9994,7.99807C 17.5204,7.99807 14.3634,9.35007 11.9994,11.5431 Z "/>
</svg>

<?xml version="1.0" encoding="UTF-8" standalone="no"?>
<svg xmlns:rdf="http://www.w3.org/1999/02/22-rdf-syntax-ns#" xmlns="http://www.w3.org/2000/svg" xml:space="preserve" height="24" width="24" version="1.1" enable-background="new 0 0 24.00 24.00" xmlns:cc="http://creativecommons.org/ns#" xmlns:dc="http://purl.org/dc/elements/1.1/" viewBox="0 0 24.00 24.00"><path stroke-linejoin="round" d="m11.999 7.9981c1.657 0 3-1.343 3-3s-1.343-3-3-3-2.9996 1.343-2.9996 3 1.3426 3 2.9996 3zm0 3.5449c-2.3636-2.1929-5.5206-3.5449-8.9996-3.5449v11c3.479 0 6.636 1.352 8.9996 3.545 2.364-2.193 5.521-3.545 9-3.545v-11c-3.479 0.0001-6.636 1.3521-9 3.545z" stroke-width=".2" fill="#000000"/></svg>
